X:21
T:Das Elsass unser Lndle
R:
O:Alsace - Elsass
A:
S:
B:Chansons populaires de l'Alsace
Z:transcription (partition) : <anamnese@laposte.net>
N:Weckerlin I - p. 321
N:
M:2/4
L:1/8
Q:1/4=130
K:F
c | A A B G | c2 c c | A A B G | c2 z c | A A B B |
(cf) d B | A c G A | F2 f2 | c3B | A c G A | F2 z2 ||
W:Das Elsass unser Lndle Das sch meineidig scheen,
W:Mer hewe's fescht am Bndle, Un lehn's Bigott ntt gehn,
W:Jhe ! Mer lehn's Bigott ntt gehn.
